!!!COM: Mozart, Wolfgang Amadeus
!!!OTL: String Quartet No. 3 in G Major
!!!OMD: Presto
!!!OMV: 1
!!!SCT1: K<sup>1</sup> 156
!!!SCA: Chronologisch-thematisches Verzeichnis sämtlicher Tonwerke Wolfgang Amade Mozarts (L. von Köchel; 1862, 2/1905, 3/1937, 1947)
!!!SCT2: K<sup>6</sup> 134b
!!!YOR: Breitkopf & Härtel Edition
!!!ENC: Edmund Correia, Jr.
!!!CDT: 1756/1/27/-1791/12/5/
!!!OCY: Österreich
!!!YEC: Copyright (c) 1994, 2000 Center for Computer Assisted Research in the Humanities
!!!YEM: Rights to all derivative editions reserved.
!!!YEM: Refer to licensing agreement for further details.
!!!YEN: United States of America
**kern	**dynam	**kern	**dynam	**kern	**dynam	**kern	**dynam
*I:Violoncello	*I:Violoncello	*I:Viola	*I:Viola	*I:Violino 2	*I:Violino 2	*I:Violino 1	*I:Violino 1
*>[A,A,B,B]	*	*>[A,A,B,B]	*	*>[A,A,B,B]	*	*>[A,A,B,B]	*
*>A	*	*>A	*	*>A	*	*>A	*
*clefF4	*	*clefC3	*	*clefG2	*	*clefG2	*
*k[f#]	*	*k[f#]	*	*k[f#]	*	*k[f#]	*
*G:	*	*G:	*	*G:	*	*G:	*
*M3/8	*	*M3/8	*	*M3/8	*	*M3/8	*
! Presto	!	! Presto	!	! Presto	!	! Presto	!
4G\xx	f	8r	.	8r	.	[4.dd\xx	f
.	.	8g\Lxx	f	8b\Lxx	f	.	.
8r	.	8g\J	.	8b\J	.	.	.
=2	=2	=2	=2	=2	=2	=2	=2
4GG/	.	8r	.	8r	.	(8dd\L]	.
.	.	8g\L	.	8dd\L	.	8bb\	.
8r	.	8d\J	.	8b\J	.	8gg\J)	.
=3	=3	=3	=3	=3	=3	=3	=3
4AA/	.	8r	.	8r	.	4.ggT\	.
.	.	8d\L	.	8cc\L	.	.	.
8r	.	8d\J	.	8cc\J	.	.	.
=4	=4	=4	=4	=4	=4	=4	=4
4A\	.	8r	.	8r	.	4ff#\	.
.	.	8d\L	.	8cc\L	.	.	.
8r	.	8d\J	.	8cc\J	.	8r	.
=5	=5	=5	=5	=5	=5	=5	=5
4D\	.	8r	.	8r	.	[4.aa\	.
.	.	8f#\L	.	8a/L	.	.	.
8r	.	8f#\J	.	8a/J	.	.	.
=6	=6	=6	=6	=6	=6	=6	=6
4DD/	.	8r	.	8r	.	8aa\L]	.
.	.	8d\L	.	8f#/L	.	8a\	.
8r	.	8d\J	.	8a/J	.	8cc\J	.
=7	=7	=7	=7	=7	=7	=7	=7
4GG/	.	8r	.	8r	.	4.ccT\	.
.	.	8f#\L	.	8a/L	.	.	.
8r	.	8f#\J	.	8a/J	.	.	.
=8	=8	=8	=8	=8	=8	=8	=8
4G\	.	8r	.	8r	.	4b\	.
.	.	8g\L	.	8g/L	.	.	.
8r	.	8d\J	.	8g/J	.	8r	.
=9	=9	=9	=9	=9	=9	=9	=9
4B\	.	8r	.	8r	.	4.dd\	.
.	.	8d\L	.	8g/L	.	.	.
8r	.	8d\J	.	8g/J	.	.	.
=10	=10	=10	=10	=10	=10	=10	=10
4A\	.	8r	.	8r	.	4.dd\	.
.	.	8f#\L	.	8cc\L	.	.	.
8r	.	8f#\J	.	8cc\J	.	.	.
=11	=11	=11	=11	=11	=11	=11	=11
4G\	.	4g\	.	4b\	.	(16gg\LL	.
.	.	.	.	.	.	16aa\	.
.	.	.	.	.	.	16bb\)	.
.	.	.	.	.	.	16gg'\	.
8r	.	8r	.	8r	.	16ff#'\	.
.	.	.	.	.	.	16ee'\JJ	.
=12	=12	=12	=12	=12	=12	=12	=12
4.r	.	4.r	.	4.r	.	16dd\LL	.
.	.	.	.	.	.	16ee\	.
.	.	.	.	.	.	16dd\	.
.	.	.	.	.	.	16cc\	.
.	.	.	.	.	.	16b\	.
.	.	.	.	.	.	16a\JJ	.
=13	=13	=13	=13	=13	=13	=13	=13
4GG/	.	4B/	.	4d/	.	16g/LL	.
.	.	.	.	.	.	16a/	.
.	.	.	.	.	.	16b/	.
.	.	.	.	.	.	16g/	.
8r	.	8r	.	8r	.	16f#/	.
.	.	.	.	.	.	16e/JJ	.
=14	=14	=14	=14	=14	=14	=14	=14
4.r	.	4.r	.	4.r	.	16d/LL	.
.	.	.	.	.	.	16e/	.
.	.	.	.	.	.	16d/	.
.	.	.	.	.	.	16c/	.
.	.	.	.	.	.	16B/	.
.	.	.	.	.	.	16A/JJ	.
=15	=15	=15	=15	=15	=15	=15	=15
4.G\	.	4.G/	.	8G/L	.	8G/L	.
.	.	.	.	16g/L	.	16g/L	.
.	.	.	.	16f#/	.	16f#/	.
.	.	.	.	16g/	.	16g/	.
.	.	.	.	16a/JJ	.	16a/JJ	.
=16	=16	=16	=16	=16	=16	=16	=16
4.B\	.	4.B/	.	8b\L	.	8b\L	.
.	.	.	.	16b\L	.	16b\L	.
.	.	.	.	16a\	.	16a\	.
.	.	.	.	16b\	.	16b\	.
.	.	.	.	16cc\JJ	.	16cc\JJ	.
=17	=17	=17	=17	=17	=17	=17	=17
8d\L	.	8d\L	.	8dd/L	.	8dd\L	.
8A\	.	8f#\	.	8a/ 8f#/	.	8dd\	.
8F#\J	.	8a\J	.	8a/ 8f#/J	.	8dd\J	.
=18	=18	=18	=18	=18	=18	=18	=18
4D\	.	4f#\	.	4a/ 4f#/	.	4dd\	.
8r	.	8r	.	8r	.	8r	.
=19	=19	=19	=19	=19	=19	=19	=19
4D\	p	4.r	.	(8d/L	p	(8ff#\L	p
.	.	.	.	8e/	.	8gg\	.
8r	.	.	.	8f#/J)	.	8aa\J)	.
=20	=20	=20	=20	=20	=20	=20	=20
4D\	.	8r	.	(8f#/L	.	4.aa\	.
.	.	8a'\L	p	8e/	.	.	.
8r	.	8a'\J	.	8d/J)	.	.	.
=21	=21	=21	=21	=21	=21	=21	=21
4A\	.	4a'\	.	(8e/L	.	(8cc#\L	.
.	.	.	.	8f#/	.	8dd\	.
8r	.	8r	.	8g/J)	.	8ee\J)	.
=22	=22	=22	=22	=22	=22	=22	=22
4A\	.	8r	.	(8g/L	.	4.ee\	.
.	.	8a'\L	.	8f#/	.	.	.
8r	.	8a'\J	.	8e/J)	.	.	.
=23	=23	=23	=23	=23	=23	=23	=23
4D\	.	4a'\	.	(8f#/L	.	(8dd\L	.
.	.	.	.	8g/	.	8ee\	.
8r	.	8r	.	8a/J)	.	8ff#\J)	.
=24	=24	=24	=24	=24	=24	=24	=24
4D\	.	8r	.	(8a/L	.	4.ff#\	.
.	.	8a'\L	.	8f#/	.	.	.
8r	.	8a'\J	.	8d/J)	.	.	.
=25	=25	=25	=25	=25	=25	=25	=25
4AA/	.	4a'\xx	.	(8e/L	.	(8gg\L	.
.	.	.	.	8d/	.	8ff#\	.
8r	.	8r	.	8c#/J)	.	8ee\J)	.
=26	=26	=26	=26	=26	=26	=26	=26
4AA/	.	8r	.	(8c#/L	.	4.ee\	.
.	.	8a'\Lxx	.	8e/	.	.	.
8r	.	8a'\Jxx	.	8a/J)	.	.	.
=27	=27	=27	=27	=27	=27	=27	=27
4.r	.	4.r	.	4.r	.	(16ff#\LL	.
.	.	.	.	.	.	16gg\	.
.	.	.	.	.	.	16ff#\	.
.	.	.	.	.	.	16gg\J	.
.	.	.	.	.	.	8aa\J)	.
=28	=28	=28	=28	=28	=28	=28	=28
8F#'\L	.	8A'/L	.	8a'/L	.	8aa'\L	.
8E'\	.	8c#'/	.	8g'/	.	8aa'\	.
8D'\J	.	8d'/J	.	8f#'/J	.	8aa'\J	.
=29	=29	=29	=29	=29	=29	=29	=29
4.r	.	4.r	.	4.r	.	(16cc#\LL	.
.	.	.	.	.	.	16dd\	.
.	.	.	.	.	.	16cc#\	.
.	.	.	.	.	.	16dd\J	.
.	.	.	.	.	.	8ee\J)	.
=30	=30	=30	=30	=30	=30	=30	=30
8E'\L	.	8c#'/L	.	8g'/L	.	8ee'\L	.
8D'\	.	8B'/	.	8g'/	.	8ee'\	.
8C#'\J	.	8A'/J	.	8g'/J	.	8ee'\J	.
=31	=31	=31	=31	=31	=31	=31	=31
4.r	.	4.r	.	4.r	.	(16dd\LL	.
.	.	.	.	.	.	16ee\	.
.	.	.	.	.	.	16dd\	.
.	.	.	.	.	.	16ee\J	.
.	.	.	.	.	.	8ff#\J)	.
=32	=32	=32	=32	=32	=32	=32	=32
8D'\L	.	8A'/L	.	8f#'/L	.	8ff#'\L	.
8D'\	.	8A'/	.	8d'/	.	8ff#'\	.
8D'\J	.	8A'/J	.	8d'/J	.	8ff#'\J	.
=33	=33	=33	=33	=33	=33	=33	=33
4.r	.	4.r	.	4.r	.	(16gg\LL	.
.	.	.	.	.	.	16ff#\	.
.	.	.	.	.	.	16gg\	.
.	.	.	.	.	.	16ff#\J	.
.	.	.	.	.	.	8ee\J)	.
=34	=34	=34	=34	=34	=34	=34	=34
8AA'/L	.	8A'/L	.	8c#'/L	.	8ee'\L	.
8BB'/	.	8A'/	.	8d'/	.	8ee'\	.
8C#'/J	.	8G'/J	.	8e'/J	.	8ee'\J	.
=35	=35	=35	=35	=35	=35	=35	=35
8D\L	f	4.F#/	f	4.A/	f	[4.dd\	f
8D\	.	.	.	.	.	.	.
8D\J	.	.	.	.	.	.	.
=36	=36	=36	=36	=36	=36	=36	=36
8D\L	.	[4.f#\	.	4.a/	.	(8dd\L]	.
8D\	.	.	.	.	.	8ddd\	.
8D\J	.	.	.	.	.	8cccn\J)	.
=37	=37	=37	=37	=37	=37	=37	=37
8G\L	.	4.f#\]	.	[4.d/	.	(4.aa#\	.
8G\	.	.	.	.	.	.	.
8G\J	.	.	.	.	.	.	.
=38	=38	=38	=38	=38	=38	=38	=38
8G\L	.	8g\L	.	(8d/L]	.	8bb\)	.
8G\	.	8e\	.	8g/	.	8r	.
8G\J	.	8d\J	.	8f#/J)	.	8r	.
=39	=39	=39	=39	=39	=39	=39	=39
8A\L	.	4.c#\	.	(4.e/	.	[4.a/	.
8A\	.	.	.	.	.	.	.
8A\J	.	.	.	.	.	.	.
=40	=40	=40	=40	=40	=40	=40	=40
8AA/L	.	[4.e\	.	[4.cc#\)	.	(8a\L]	.
8AA/	.	.	.	.	.	8aa\	.
8AA/J	.	.	.	.	.	8gg\J)	.
=41	=41	=41	=41	=41	=41	=41	=41
8BB/L	.	4.e\]	.	4.cc#\]	.	(4.gg\	.
8BB/	.	.	.	.	.	.	.
8BB/J	.	.	.	.	.	.	.
=42	=42	=42	=42	=42	=42	=42	=42
8B\L	.	8d\L	.	8dd\L	.	8ff#\)	.
8A\	.	8d\	.	8cc#\	.	8r	.
8G\J	.	8d\J	.	8b\J	.	8r	.
=43	=43	=43	=43	=43	=43	=43	=43
4F#\	.	4d\	.	4a/	.	(16dd\LL	.
.	.	.	.	.	.	16cc#\	.
.	.	.	.	.	.	16dd\	.
.	.	.	.	.	.	16ee\	.
8r	.	8r	.	8r	.	16ff#\	.
.	.	.	.	.	.	16gg\JJ)	.
=44	=44	=44	=44	=44	=44	=44	=44
4F#\	.	8r	.	(16dd\LL	.	8aa\	.
.	.	.	.	16ee\	.	.	.
.	.	8a\L	.	16ff#\	.	8r	.
.	.	.	.	16ee\	.	.	.
8r	.	8f#\J	.	16dd\	.	8r	.
.	.	.	.	16cc#\JJ)	.	.	.
=45	=45	=45	=45	=45	=45	=45	=45
4G\	.	4d\	.	8b\	.	(16ee\LL	.
.	.	.	.	.	.	16dd#\	.
.	.	.	.	8r	.	16ee\	.
.	.	.	.	.	.	16ff#\	.
8r	.	8r	.	8r	.	16gg\	.
.	.	.	.	.	.	16aa\JJ)	.
=46	=46	=46	=46	=46	=46	=46	=46
4G\	.	8r	.	(16e/LL	.	8bb\	.
.	.	.	.	16f#/	.	.	.
.	.	8B/L	.	16g/	.	8r	.
.	.	.	.	16f#/	.	.	.
8r	.	8G/J	.	16e/	.	8r	.
.	.	.	.	16d/JJ)	.	.	.
=47	=47	=47	=47	=47	=47	=47	=47
(4A\	.	(4e\	.	(4c#/	.	(8aa\L	.
.	.	.	.	.	.	8gg\)	.
8B\)	.	8d\)	.	8d/)	.	8ff#\J	.
=48	=48	=48	=48	=48	=48	=48	=48
8G\L	.	8r	.	8b'/L	.	8ee'\L	.
8A\	.	(8a\L	.	(8f#/	.	(8dd\	.
8A\J	.	8g\J)	.	8e/J)	.	8cc#\J)	.
=49	=49	=49	=49	=49	=49	=49	=49
4F#\	.	4d\	.	4a/	.	(16dd\LL	.
.	.	.	.	.	.	16cc#\	.
.	.	.	.	.	.	16dd\	.
.	.	.	.	.	.	16ee\	.
8r	.	8r	.	8r	.	16ff#\	.
.	.	.	.	.	.	16gg\JJ)	.
=50	=50	=50	=50	=50	=50	=50	=50
4F#\	.	8r	.	(16dd\LL	.	8aa\	.
.	.	.	.	16ee\	.	.	.
.	.	8a\L	.	16ff#\	.	8r	.
.	.	.	.	16ee\	.	.	.
8r	.	8f#\J	.	16dd\	.	8r	.
.	.	.	.	16cc#\JJ)	.	.	.
=51	=51	=51	=51	=51	=51	=51	=51
4G\	.	4d\	.	8b\	.	(16ee\LL	.
.	.	.	.	.	.	16dd#\	.
.	.	.	.	8r	.	16ee\	.
.	.	.	.	.	.	16ff#\	.
8r	.	8r	.	8r	.	16gg\	.
.	.	.	.	.	.	16aa\JJ)	.
=52	=52	=52	=52	=52	=52	=52	=52
4G\	.	8r	.	(16e/LL	.	8bb\	.
.	.	.	.	16f#/	.	.	.
.	.	8B/L	.	16g/	.	8r	.
.	.	.	.	16f#/	.	.	.
8r	.	8G/J	.	16e/	.	8r	.
.	.	.	.	16d/JJ)	.	.	.
=53	=53	=53	=53	=53	=53	=53	=53
(4A\	.	(4e\	.	(4c#/	.	(8aa\L	.
.	.	.	.	.	.	8gg\)	.
8B\)	.	8d\)	.	8d/)	.	8ff#\J	.
=54	=54	=54	=54	=54	=54	=54	=54
8G\L	.	8r	.	8b'/L	.	8ee'\L	.
8A\	.	(8a\L	.	(8f#/	.	(8dd\	.
8A\J	.	8g\J)	.	8e/J)	.	8cc#\J)	.
=55	=55	=55	=55	=55	=55	=55	=55
4D\	.	4f#\	.	4d/	.	4dd\	.
8r	.	8f#\	.	8a/	.	8r	.
=56	=56	=56	=56	=56	=56	=56	=56
4.r	.	(8f#\L	.	(8a/L	.	4.r	.
.	.	8d\)	.	8f#/)	.	.	.
.	.	8f#'\J	.	8a'/J	.	.	.
=57	=57	=57	=57	=57	=57	=57	=57
4.r	.	(8f#\L	.	(8a/L	.	4.r	.
.	.	8d\)	.	8f#/)	.	.	.
.	.	8f#'\J	.	8a'/J	.	.	.
=58	=58	=58	=58	=58	=58	=58	=58
*	*	*	*	*	*	*^	*
8r	.	(8e\L	.	(8g/L	.	8r	4ryy	.
8r	.	8c#\)	.	8e/)	.	8r	.	.
8A\	.	8e'\J	.	8cc#'/J	.	8gg/	8a\	.
=59	=59	=59	=59	=59	=59	=59	=59	=59
*	*	*	*	*	*	*v	*v	*
4D\	.	4d\	.	4dd\	.	4ff#/ 4a/ 4d/	.
8r	.	8f#\	.	8a/	.	8r	.
=60	=60	=60	=60	=60	=60	=60	=60
4.r	.	(8f#\L	.	(8a/L	.	4.r	.
.	.	8d\)	.	8f#/)	.	.	.
.	.	8f#'\J	.	8a'/J	.	.	.
=61	=61	=61	=61	=61	=61	=61	=61
4.r	.	(8f#\L	.	(8a/L	.	4.r	.
.	.	8d\)	.	8f#/)	.	.	.
.	.	8f#'\J	.	8a'/J	.	.	.
=62	=62	=62	=62	=62	=62	=62	=62
*	*	*	*	*	*	*^	*
8r	.	(8e\L	.	(8g/L	.	8r	4ryy	.
8r	.	8c#\)	.	8e/)	.	8r	.	.
8A\	.	8e'\J	.	8g'/J	.	8ccc#/	8a\	.
=63	=63	=63	=63	=63	=63	=63	=63	=63
4D\	.	4f#\	.	4f#/	.	4ddd/	4a\ 4d\	.
8A\	.	8a\	.	8a/	.	8a/	8ryy	.
=64	=64	=64	=64	=64	=64	=64	=64	=64
*	*	*	*	*	*	*v	*v	*
8d\L	.	8dd\L	.	8dd\L	.	8dd\L	.
8c#\	.	8cc#\	.	8cc#\	.	8cc#\	.
8B\J	.	8b\J	.	8b\J	.	8b\J	.
=65	=65	=65	=65	=65	=65	=65	=65
4.A#\	.	4.a#\	.	4.a#/	.	4.a#/	.
=66	=66	=66	=66	=66	=66	=66	=66
8B\L	.	8b\L	.	8b/L	.	8b/L	.
8An\	.	8an\	.	8an/	.	8an/	.
8G\J	.	8g\J	.	8g/J	.	8g/J	.
=67	=67	=67	=67	=67	=67	=67	=67
4.F#\	.	4.f#\	.	4.f#/	.	4.f#/	.
=68	=68	=68	=68	=68	=68	=68	=68
4.G\	p	8g\L	p	8g\L	p	8g\L	p
.	.	8g\	.	8ee\	.	8bb\	.
.	.	8f#\J	.	8dd\J	.	8bb\J	.
=69	=69	=69	=69	=69	=69	=69	=69
4.A\	.	4.e\	.	4cc#\	.	(8bb\L	.
.	.	.	.	.	.	8aa\)	.
.	.	.	.	8g/	.	8cc#'\J	.
=70	=70	=70	=70	=70	=70	=70	=70
[4.D\	.	(4.e\	.	(4.g/	.	(4.cc#\	.
=71	=71	=71	=71	=71	=71	=71	=71
8D\]	.	8d\)	.	8f#/)	.	8dd\)	.
8r	.	8r	.	8r	.	8r	.
8r	.	8r	.	8r	.	8r	.
=72:!!:	=72:!!:	=72:!!:	=72:!!:	=72:!!:	=72:!!:	=72:!!:	=72:!!:
*>B	*	*>B	*	*>B	*	*>B	*
4.r	.	4.r	.	(16B/LL	f	4.r	.
.	.	.	.	16cn/J	.	.	.
.	.	.	.	8B/J)	.	.	.
.	.	.	.	8B'/	.	.	.
=73	=73	=73	=73	=73	=73	=73	=73
4.r	.	4.b\	f	(16B/LL	.	4.r	.
.	.	.	.	16c/J	.	.	.
.	.	.	.	8B/J)	.	.	.
.	.	.	.	8B'/	.	.	.
=74	=74	=74	=74	=74	=74	=74	=74
4.r	.	4.g\	.	(16B/LL	.	4.r	.
.	.	.	.	16c/J	.	.	.
.	.	.	.	8B/J)	.	.	.
.	.	.	.	8B'/	.	.	.
=75	=75	=75	=75	=75	=75	=75	=75
(4.G\	f	4.e\	.	(16B/LL	.	(4.ee\	f
.	.	.	.	16c/J	.	.	.
.	.	.	.	8B/J)	.	.	.
.	.	.	.	8B'/	.	.	.
=76	=76	=76	=76	=76	=76	=76	=76
4.F#\	.	4.r	.	(16B/LL	.	4.dd#\	.
.	.	.	.	16c/J	.	.	.
.	.	.	.	8B/J)	.	.	.
.	.	.	.	8B'/	.	.	.
=77	=77	=77	=77	=77	=77	=77	=77
4.D#\)	.	4.b\	.	(16B/LL	.	4.b\)	.
.	.	.	.	16c/J	.	.	.
.	.	.	.	8B/J)	.	.	.
.	.	.	.	8B'/	.	.	.
=78	=78	=78	=78	=78	=78	=78	=78
4.r	.	4.g\	.	(16B/LL	.	4.r	.
.	.	.	.	16c/J	.	.	.
.	.	.	.	8B/J)	.	.	.
.	.	.	.	8B'/	.	.	.
=79	=79	=79	=79	=79	=79	=79	=79
(4.G\	.	4.e\	.	(16B/LL	.	(4.ee\	.
.	.	.	.	16c/J	.	.	.
.	.	.	.	8B/J)	.	.	.
.	.	.	.	8B'/	.	.	.
=80	=80	=80	=80	=80	=80	=80	=80
4.E\	.	4.r	.	(16A/LL	.	4.cc#\	.
.	.	.	.	16B/J	.	.	.
.	.	.	.	8A/J)	.	.	.
.	.	.	.	8A'/	.	.	.
=81	=81	=81	=81	=81	=81	=81	=81
4.C#/)	.	4.a\	.	(16A/LL	.	4.a/)	.
.	.	.	.	16B/J	.	.	.
.	.	.	.	8A/J)	.	.	.
.	.	.	.	8A'/	.	.	.
=82	=82	=82	=82	=82	=82	=82	=82
4.r	.	4.f#\	.	(16A/LL	.	4.r	.
.	.	.	.	16B/J	.	.	.
.	.	.	.	8A/J)	.	.	.
.	.	.	.	8A'/	.	.	.
=83	=83	=83	=83	=83	=83	=83	=83
(4.F#\	.	4.d\	.	(16A/LL	.	(4.ddn\	.
.	.	.	.	16B/J	.	.	.
.	.	.	.	8A/J)	.	.	.
.	.	.	.	8A'/	.	.	.
=84	=84	=84	=84	=84	=84	=84	=84
4.E\	.	4.r	.	(16A/LL	.	4.cc#\	.
.	.	.	.	16B/J	.	.	.
.	.	.	.	8A/J)	.	.	.
.	.	.	.	8A'/	.	.	.
=85	=85	=85	=85	=85	=85	=85	=85
4.C#/)	.	4.a\	.	(16A/LL	.	4.a/)	.
.	.	.	.	16B/J	.	.	.
.	.	.	.	8A/J)	.	.	.
.	.	.	.	8A'/	.	.	.
=86	=86	=86	=86	=86	=86	=86	=86
4.D\	.	4.f#\	.	(16A/LL	.	4.r	.
.	.	.	.	16B/J	.	.	.
.	.	.	.	8A/J)	.	.	.
.	.	.	.	8A'/	.	.	.
=87	=87	=87	=87	=87	=87	=87	=87
4.B\	.	4.d\	.	(16dd\LL	.	4.r	.
.	.	.	.	16ee\J	.	.	.
.	.	.	.	8dd\J)	.	.	.
.	.	.	.	8dd'\	.	.	.
=88	=88	=88	=88	=88	=88	=88	=88
4.G#\	.	(8B\L	.	(8dd\L	.	(16ee\LL	.
.	.	.	.	.	.	16ffn\J	.
.	.	8g#\	.	8b\	.	8ee\J)	.
.	.	8a\J)	.	8cc\J)	.	8ee'\	.
=89	=89	=89	=89	=89	=89	=89	=89
4.E\	.	(8b\L	.	(8dd\L	.	(16ee\LL	.
.	.	.	.	.	.	16ffn\J	.
.	.	8a\	.	8cc\	.	8ee\J)	.
.	.	8g#\J)	.	8b\J)	.	8ee'\	.
=90	=90	=90	=90	=90	=90	=90	=90
4A\	.	4a\	.	(16cc\LL	.	(8ee\L	.
.	.	.	.	16dd\J	.	.	.
.	.	.	.	8cc\J)	.	8aa\	.
8r	.	8r	.	8cc'\	.	8bb\J)	.
=91	=91	=91	=91	=91	=91	=91	=91
4Gn\	.	(16a\LL	.	(16cc\LL	.	(8ccc\L	.
.	.	16b\J	.	16dd\J	.	.	.
.	.	8a\J)	.	8cc\J)	.	8aa\	.
8r	.	8a'\	.	8cc'\	.	8ee\J)	.
=92	=92	=92	=92	=92	=92	=92	=92
4.F#\	.	(8a\L	.	(8cc\L	.	(16dd\LL	.
.	.	.	.	.	.	16ee\J	.
.	.	8f#\	.	8a\	.	8dd\J)	.
.	.	8gn\J)	.	8b\J)	.	8dd'\	.
=93	=93	=93	=93	=93	=93	=93	=93
4.D\	.	(8a\L	.	(8cc\L	.	(16dd\LL	.
.	.	.	.	.	.	16ee\J	.
.	.	8g\	.	8b\	.	8dd\J)	.
.	.	8f#\J)	.	8a\J)	.	8dd'\	.
=94	=94	=94	=94	=94	=94	=94	=94
4G\	.	4g\	.	(16b\LL	.	(8dd\L	.
.	.	.	.	16cc\J	.	.	.
.	.	.	.	8b\J)	.	8gg\	.
8r	.	8r	.	8b'\	.	8aa\J)	.
=95	=95	=95	=95	=95	=95	=95	=95
4G\	.	(16g\LL	.	(16b\LL	.	(8bb\L	.
.	.	16a\J	.	16cc\J	.	.	.
.	.	8g\J)	.	8b\J)	.	8gg\	.
8r	.	8g'\	.	8b'\	.	8dd\J)	.
=96	=96	=96	=96	=96	=96	=96	=96
4.F#\	.	(16d\LL	.	(8a/L	.	(8cc\L	.
.	.	16e\J	.	.	.	.	.
.	.	8d\J)	.	8cc/)	.	8aa\)	.
.	.	8d'\	.	8a'/J	.	8cc'\J	.
=97	=97	=97	=97	=97	=97	=97	=97
4.G\	.	(16d\LL	.	(8g/L	.	(8b\L	.
.	.	16e\J	.	.	.	.	.
.	.	8d\J)	.	8b/)	.	8gg\)	.
.	.	8d'\	.	8g'/J	.	8b'\J	.
=98	=98	=98	=98	=98	=98	=98	=98
(16d\LL	.	4d\	.	4f#/	.	4a/	.
16e\J	.	.	.	.	.	.	.
8d\J)	.	.	.	.	.	.	.
8d'\	.	8r	.	8r	.	8r	.
=99	=99	=99	=99	=99	=99	=99	=99
(16d\LL	.	(4.f#\	.	(4.a/	.	(4.cc\	.
16e\J	.	.	.	.	.	.	.
8d\J)	.	.	.	.	.	.	.
8d'\	.	.	.	.	.	.	.
=100	=100	=100	=100	=100	=100	=100	=100
(16d\LL	.	8g\)	.	8g/)	.	8b\)	.
16e\J	.	.	.	.	.	.	.
8d\J)	.	8r	.	8r	.	8r	.
8d'\	.	8r	.	8r	.	8r	.
=101	=101	=101	=101	=101	=101	=101	=101
(16d\LL	.	(4.e\	.	(4.cc#\	.	(4.gg\	.
16e\J	.	.	.	.	.	.	.
8d\J)	.	.	.	.	.	.	.
8d'\	.	.	.	.	.	.	.
=102	=102	=102	=102	=102	=102	=102	=102
(16d\LL	.	8d\)	.	8dd\)	.	8ff#\)	.
16e\J	.	.	.	.	.	.	.
8d\J)	.	8r	.	8r	.	8r	.
8d'\	.	8r	.	8r	.	8r	.
=103	=103	=103	=103	=103	=103	=103	=103
(16d\LL	.	(4.cc\	.	(4.ff#\	.	(4.aa\	.
16e\J	.	.	.	.	.	.	.
8d\J)	.	.	.	.	.	.	.
8d'\	.	.	.	.	.	.	.
=104	=104	=104	=104	=104	=104	=104	=104
(16d\LL	.	8b-\)	.	8gg\)	.	8bb-\)	.
16e\J	.	.	.	.	.	.	.
8d\J)	.	8r	.	8r	.	8r	.
8d'\	.	8r	.	8r	.	8r	.
=105	=105	=105	=105	=105	=105	=105	=105
(16d\LL	.	(4.g\	.	(4.b-\	.	(4.cc#\	.
16e\J	.	.	.	.	.	.	.
8d\J)	.	.	.	.	.	.	.
8d'\	.	.	.	.	.	.	.
=106	=106	=106	=106	=106	=106	=106	=106
8d'\	.	8f#\)	.	8a/)	.	8dd\)	.
8r	.	8r	.	8r	.	8r	.
8r	.	8r	.	8r	.	8r	.
=107	=107	=107	=107	=107	=107	=107	=107
8d\	p	8f#\	p	8a/	p	8dd\	p
8r	.	8r	.	8r	.	8r	.
8r	.	8r	.	8r	.	8r	.
=108	=108	=108	=108	=108	=108	=108	=108
8d\	.	8f#\	.	8a/	.	8dd\	.
8r	.	8r	.	8r	.	8r	.
8r	.	8r	.	8r	.	8r	.
=109	=109	=109	=109	=109	=109	=109	=109
4.r	.	4.r	.	4.r	.	4.r	.
=110	=110	=110	=110	=110	=110	=110	=110
4G\	f	8r	.	8r	.	[4.dd\	f
.	.	8g\L	f	8bn\L	f	.	.
8r	.	8g\J	.	8b\J	.	.	.
=111	=111	=111	=111	=111	=111	=111	=111
4GG/	.	8r	.	8r	.	(8dd\L]	.
.	.	8g\L	.	8dd\L	.	8bb\	.
8r	.	8d\J	.	8b\J	.	8gg\J)	.
=112	=112	=112	=112	=112	=112	=112	=112
4AA/	.	8r	.	8r	.	(4.ggT\	.
.	.	8d\L	.	8cc\L	.	.	.
8r	.	8d\J	.	8cc\J	.	.	.
=113	=113	=113	=113	=113	=113	=113	=113
4A\	.	8r	.	8r	.	8ff#\)	.
.	.	8d\L	.	8cc\L	.	8r	.
8r	.	8d\J	.	8cc\J	.	8r	.
=114	=114	=114	=114	=114	=114	=114	=114
4D\	.	8r	.	8r	.	[4.aa\	.
.	.	8f#\L	.	8a/L	.	.	.
8r	.	8f#\J	.	8a/J	.	.	.
=115	=115	=115	=115	=115	=115	=115	=115
4DD/	.	8r	.	8r	.	8aa\L]	.
.	.	8d\L	.	8f#/L	.	8a\	.
8r	.	8d\J	.	8a/J	.	8cc\J	.
=116	=116	=116	=116	=116	=116	=116	=116
4GG/	.	8r	.	8r	.	(4.ccT\	.
.	.	8f#\L	.	8a/L	.	.	.
8r	.	8f#\J	.	8a/J	.	.	.
=117	=117	=117	=117	=117	=117	=117	=117
4G\	.	8r	.	8r	.	8b\)	.
.	.	8g\L	.	8g/L	.	8r	.
8r	.	8g\J	.	8d/J	.	8r	.
=118	=118	=118	=118	=118	=118	=118	=118
4B\	.	8r	.	8r	.	4.dd\	.
.	.	8d\L	.	8g/L	.	.	.
8r	.	8d\J	.	8g/J	.	.	.
=119	=119	=119	=119	=119	=119	=119	=119
4A\	.	8r	.	8r	.	4.dd\	.
.	.	8f#\L	.	8cc\L	.	.	.
8r	.	8f#\J	.	8cc\J	.	.	.
=120	=120	=120	=120	=120	=120	=120	=120
4G\	.	4g\	.	4b\	.	(16gg\LL	.
.	.	.	.	.	.	16aa\	.
.	.	.	.	.	.	16bb\)	.
.	.	.	.	.	.	16gg'\	.
8r	.	8r	.	8r	.	16ff#'\	.
.	.	.	.	.	.	16ee'\JJ	.
=121	=121	=121	=121	=121	=121	=121	=121
4.r	.	4.r	.	4.r	.	16dd\LL	.
.	.	.	.	.	.	16ee\	.
.	.	.	.	.	.	16dd\	.
.	.	.	.	.	.	16ccn\	.
.	.	.	.	.	.	16b\	.
.	.	.	.	.	.	16a\JJ	.
=122	=122	=122	=122	=122	=122	=122	=122
4GG/	.	4B/	.	4d/	.	16g/LL	.
.	.	.	.	.	.	16a/	.
.	.	.	.	.	.	16b/	.
.	.	.	.	.	.	16g/	.
8r	.	8r	.	8r	.	16f#/	.
.	.	.	.	.	.	16e/JJ	.
=123	=123	=123	=123	=123	=123	=123	=123
4.r	.	4.r	.	4.r	.	16d/LL	.
.	.	.	.	.	.	16e/	.
.	.	.	.	.	.	16d/	.
.	.	.	.	.	.	16c/	.
.	.	.	.	.	.	16B/	.
.	.	.	.	.	.	16A/JJ	.
=124	=124	=124	=124	=124	=124	=124	=124
4.G\	.	4.G/	.	8G/L	.	8G/L	.
.	.	.	.	16g/L	.	16g/L	.
.	.	.	.	16f#/	.	16f#/	.
.	.	.	.	16g/	.	16g/	.
.	.	.	.	16a/JJ	.	16a/JJ	.
=125	=125	=125	=125	=125	=125	=125	=125
4.B\	.	4.B/	.	8b\L	.	8b\L	.
.	.	.	.	16b\L	.	16b\L	.
.	.	.	.	16a\	.	16a\	.
.	.	.	.	16b\	.	16b\	.
.	.	.	.	16cc\JJ	.	16cc\JJ	.
=126	=126	=126	=126	=126	=126	=126	=126
8d\L	.	8d\L	.	8dd/L	.	8dd\L	.
8A\	.	8f#\	.	8a/ 8f#/	.	8dd\	.
8F#\J	.	8a\J	.	8a/ 8f#/J	.	8dd\J	.
=127	=127	=127	=127	=127	=127	=127	=127
4D\	.	4f#\	.	4a/ 4f#/	.	4dd\	.
8r	.	8r	.	8r	.	8r	.
=128	=128	=128	=128	=128	=128	=128	=128
4G\	p	4.r	.	(8G/L	p	(8b\L	p
.	.	.	.	8A/	.	8cc\	.
8r	.	.	.	8B/J)	.	8dd\J)	.
=129	=129	=129	=129	=129	=129	=129	=129
4G\	.	8r	.	(8B/L	.	4.dd\	.
.	.	8d'\L	p	8A/	.	.	.
8r	.	8d'\J	.	8G/J)	.	.	.
=130	=130	=130	=130	=130	=130	=130	=130
4D\	.	4d'\	.	(8A/L	.	(8f#/L	.
.	.	.	.	8B/	.	8g/	.
8r	.	8r	.	8c/J)	.	8a/J)	.
=131	=131	=131	=131	=131	=131	=131	=131
4D\	.	8r	.	(8c/L	.	4.a/	.
.	.	8d'\L	.	8B/	.	.	.
8r	.	8d'\J	.	8A/J)	.	.	.
=132	=132	=132	=132	=132	=132	=132	=132
4GG/	.	4d'\xx	.	(8B/L	.	(8g/L	.
.	.	.	.	8c/	.	8a/	.
8r	.	8r	.	8d/J)	.	8b/J)	.
=133	=133	=133	=133	=133	=133	=133	=133
4GG/	.	8r	.	(8d/L	.	4.b\	.
.	.	8d'\L	.	8B/	.	.	.
8r	.	8d'\J	.	8G/J)	.	.	.
=134	=134	=134	=134	=134	=134	=134	=134
4DD/	.	4d'\xx	.	(8f#/L	.	(8cc\L	.
.	.	.	.	8g/	.	8b\	.
8r	.	8r	.	8f#/J)	.	8a\J)	.
=135	=135	=135	=135	=135	=135	=135	=135
4DD/	.	8r	.	(8f#/L	.	4.a/	.
.	.	8d'\L	.	8d/	.	.	.
8r	.	8d'\J	.	8c/J)	.	.	.
=136	=136	=136	=136	=136	=136	=136	=136
4.r	.	4.r	.	4.r	.	(16bb\LL	.
.	.	.	.	.	.	16ccc\	.
.	.	.	.	.	.	16bb\	.
.	.	.	.	.	.	16ccc\J	.
.	.	.	.	.	.	8ddd\J)	.
=137	=137	=137	=137	=137	=137	=137	=137
8B'\Lxx	.	8d'\L	.	8dd'\L	.	8ddd'\L	.
8A'\xx	.	8f#'\	.	8cc'\	.	8ddd'\	.
8G'\Jxx	.	8g'\J	.	8b'\J	.	8ddd'\J	.
=138	=138	=138	=138	=138	=138	=138	=138
4.r	.	4.r	.	4.r	.	(16ff#\LL	.
.	.	.	.	.	.	16gg\	.
.	.	.	.	.	.	16ff#\	.
.	.	.	.	.	.	16gg\J	.
.	.	.	.	.	.	8aa\J)	.
=139	=139	=139	=139	=139	=139	=139	=139
8F#'\L	.	8a'\L	.	8cc'\L	.	8aa'\L	.
8E'\	.	8g'\	.	8cc'\	.	8aa'\	.
8D'\J	.	8f#'\J	.	8cc'\J	.	8aa'\J	.
=140	=140	=140	=140	=140	=140	=140	=140
4.r	.	4.r	.	4.r	.	(16gg\LL	.
.	.	.	.	.	.	16aa\	.
.	.	.	.	.	.	16gg\	.
.	.	.	.	.	.	16aa\J	.
.	.	.	.	.	.	8bb\J)	.
=141	=141	=141	=141	=141	=141	=141	=141
8G'\L	.	8d'\L	.	8g'/L	.	8bb'\L	.
8G'\	.	8d'\	.	8g'/	.	8bb'\	.
8G'\J	.	8d'\J	.	8g'/J	.	8bb'\J	.
=142	=142	=142	=142	=142	=142	=142	=142
4.r	.	4.r	.	4.r	.	(16ccc\LL	.
.	.	.	.	.	.	16bb\	.
.	.	.	.	.	.	16ccc\	.
.	.	.	.	.	.	16bb\J	.
.	.	.	.	.	.	8aa\J)	.
=143	=143	=143	=143	=143	=143	=143	=143
8D'\L	.	8d'\L	.	8f#'/L	.	8aa'\L	.
8D'\	.	8e'\	.	8g'/	.	8aa'\	.
8D'\J	.	8f#'\J	.	8a'/J	.	8aa'\J	.
=144	=144	=144	=144	=144	=144	=144	=144
8G\L	f	4.g\	f	4.b\	f	[4.gg\	f
8G\	.	.	.	.	.	.	.
8G\J	.	.	.	.	.	.	.
=145	=145	=145	=145	=145	=145	=145	=145
8GG/L	.	[4.B/	.	4.d/	.	8gg\L]	.
8GG/	.	.	.	.	.	8g\	.
8GG/J	.	.	.	.	.	8ffn\J	.
=146	=146	=146	=146	=146	=146	=146	=146
8C/L	.	(4.B/]	.	[4.G/	.	(4.dd#\	.
8C/	.	.	.	.	.	.	.
8C/J	.	.	.	.	.	.	.
=147	=147	=147	=147	=147	=147	=147	=147
8C/L	.	8c/L)	.	8G/L]	.	8ee\)	.
8C/	.	(8A/	.	(8c/	.	8r	.
8C/J	.	8G/J)	.	8B/J)	.	8r	.
=148	=148	=148	=148	=148	=148	=148	=148
8D\L	.	4.F#/	.	4.A/	.	[4.d/	.
8D\	.	.	.	.	.	.	.
8D\J	.	.	.	.	.	.	.
=149	=149	=149	=149	=149	=149	=149	=149
8D\L	.	[4.A/	.	[4.f#/	.	(8d/L]	.
8D\	.	.	.	.	.	8dd/	.
8D\J	.	.	.	.	.	8cc/J)	.
=150	=150	=150	=150	=150	=150	=150	=150
8D#\L	.	4.A/]	.	4.f#/]	.	(4.cc\	.
8D#\	.	.	.	.	.	.	.
8D#\J	.	.	.	.	.	.	.
=151	=151	=151	=151	=151	=151	=151	=151
8E\L	.	8G/L	.	8g/L	.	8b\)	.
8Dn\	.	8G/	.	8f#/	.	8r	.
8C\J	.	8G/J	.	8e/J	.	8r	.
=152	=152	=152	=152	=152	=152	=152	=152
4BB/	.	4G/	.	4d/	.	(16g/LL	.
.	.	.	.	.	.	16f#/	.
.	.	.	.	.	.	16g/	.
.	.	.	.	.	.	16a/	.
8r	.	8r	.	8r	.	16b/	.
.	.	.	.	.	.	16cc/JJ)	.
=153	=153	=153	=153	=153	=153	=153	=153
4BB/	.	8r	.	(16dd/LL	.	4dd\	.
.	.	.	.	16cc/	.	.	.
.	.	8d\L	.	16b/	.	.	.
.	.	.	.	16a/	.	.	.
8r	.	8B\J	.	16g/	.	8r	.
.	.	.	.	16fn/JJ)	.	.	.
=154	=154	=154	=154	=154	=154	=154	=154
4C/	.	4G/	.	4e/	.	(16ee\LL	.
.	.	.	.	.	.	16ff#\	.
.	.	.	.	.	.	16gg\	.
.	.	.	.	.	.	16ff#\	.
8r	.	8r	.	8r	.	16ee\	.
.	.	.	.	.	.	16dd\JJ)	.
=155	=155	=155	=155	=155	=155	=155	=155
4C/	.	8r	.	(16cc\LL	.	4cc\	.
.	.	.	.	16dd\	.	.	.
.	.	8e\L	.	16cc\	.	.	.
.	.	.	.	16b\	.	.	.
8r	.	8c\J	.	16a\	.	8r	.
.	.	.	.	16g\JJ)	.	.	.
=156	=156	=156	=156	=156	=156	=156	=156
(4D\	.	(8c/L	.	(4f#/	.	(8a\L	.
.	.	8A/	.	.	.	8cc\)	.
8E\)	.	8G/J)	.	8g/)	.	8b'\J	.
=157	=157	=157	=157	=157	=157	=157	=157
8C/L	.	8r	.	8e'/L	.	8a'/L	.
8D/	.	8d\L	.	(8B/	.	(8g/	.
8D/J	.	8d\J	.	8A/J)	.	8f#/J)	.
=158	=158	=158	=158	=158	=158	=158	=158
4BB/	.	4G/	.	4d/	.	(16g/LL	.
.	.	.	.	.	.	16f#/	.
.	.	.	.	.	.	16g/	.
.	.	.	.	.	.	16a/	.
8r	.	8r	.	8r	.	16b/	.
.	.	.	.	.	.	16cc/JJ)	.
=159	=159	=159	=159	=159	=159	=159	=159
4BB/	.	8r	.	(16dd/LL	.	4dd\	.
.	.	.	.	16cc/	.	.	.
.	.	8d\L	.	16b/	.	.	.
.	.	.	.	16a/	.	.	.
8r	.	8B\J	.	16g/	.	8r	.
.	.	.	.	16fn/JJ)	.	.	.
=160	=160	=160	=160	=160	=160	=160	=160
4C/	.	4G/	.	4e/	.	(16ee\LL	.
.	.	.	.	.	.	16ff#\	.
.	.	.	.	.	.	16gg\	.
.	.	.	.	.	.	16ff#\	.
8r	.	8r	.	8r	.	16ee\	.
.	.	.	.	.	.	16dd\JJ)	.
=161	=161	=161	=161	=161	=161	=161	=161
4C/	.	8r	.	(16cc\LL	.	4cc\	.
.	.	.	.	16dd\	.	.	.
.	.	8e\L	.	16cc\	.	.	.
.	.	.	.	16b\	.	.	.
8r	.	8c\J	.	16a\	.	8r	.
.	.	.	.	16g\JJ)	.	.	.
=162	=162	=162	=162	=162	=162	=162	=162
(4D\	.	(8c/L	.	(4f#/	.	(8a\L	.
.	.	8A/	.	.	.	8cc\)	.
8E\)	.	8G/J)	.	8g/)	.	8b'\J	.
=163	=163	=163	=163	=163	=163	=163	=163
8C/L	.	8r	.	8e'/L	.	8a'/L	.
8D/	.	8d\L	.	(8B/	.	(8g/	.
8D/J	.	8d\J	.	8A/J)	.	8f#/J)	.
=164	=164	=164	=164	=164	=164	=164	=164
4G\	.	4d\	.	4B/	.	4g/	.
8r	.	8b'\	.	8dd'\	.	8r	.
=165	=165	=165	=165	=165	=165	=165	=165
4.r	.	(8b\L	.	(8dd\L	.	4.r	.
.	.	8g\)	.	8b\)	.	.	.
.	.	8b'\J	.	8dd'\J	.	.	.
=166	=166	=166	=166	=166	=166	=166	=166
4.r	.	(8b\L	.	(8dd\L	.	4.r	.
.	.	8g\)	.	8b\)	.	.	.
.	.	8b'\J	.	8dd'\J	.	.	.
=167	=167	=167	=167	=167	=167	=167	=167
8r	.	(8a\L	.	(8cc\L	.	8r	.
8r	.	8f#\)	.	8a\)	.	8r	.
8D\	.	8a'\J	.	8ff#'\J	.	8ccc\ 8dd\	.
=168	=168	=168	=168	=168	=168	=168	=168
4G\	.	4g\	.	4gg\	.	4bb\ 4dd\	.
8r	.	8b\	.	8dd\	.	8r	.
=169	=169	=169	=169	=169	=169	=169	=169
4.r	.	(8b\L	.	(8dd\L	.	4.r	.
.	.	8g\)	.	8b\)	.	.	.
.	.	8b'\J	.	8dd'\J	.	.	.
=170	=170	=170	=170	=170	=170	=170	=170
4.r	.	(8b\L	.	(8dd\L	.	4.r	.
.	.	8g\)	.	8b\)	.	.	.
.	.	8b'\J	.	8dd'\J	.	.	.
=171	=171	=171	=171	=171	=171	=171	=171
8r	.	(8a\L	.	(8cc\L	.	8r	.
8r	.	8f#\)	.	8a\)	.	8r	.
8D\	.	8d'\J	.	8cc'\J	.	8ff#\ 8a\	.
=172	=172	=172	=172	=172	=172	=172	=172
4GG/	.	4d/ 4G/	.	4b/ 4d/ 4G/	.	4gg\ 4b\ 4d\	.
8D\	.	8d\	.	8d/	.	8d/	.
=173	=173	=173	=173	=173	=173	=173	=173
8G\L	.	8g\L	.	8g/L	.	8g/L	.
8F#\	.	8f#\	.	8f#/	.	8f#/	.
8E\J	.	8e\J	.	8e/J	.	8e/J	.
=174	=174	=174	=174	=174	=174	=174	=174
4.D#\	.	4.d#\	.	4.d#/	.	4.d#/	.
=175	=175	=175	=175	=175	=175	=175	=175
8E\L	.	8e\L	.	8e/L	.	8e/L	.
8Dn\	.	8dn\	.	8dn/	.	8dn/	.
8C\J	.	8c\J	.	8c/J	.	8c/J	.
=176	=176	=176	=176	=176	=176	=176	=176
4.BB/	.	4.B/	.	4.B/	.	4.B/	.
=177	=177	=177	=177	=177	=177	=177	=177
4.C/	p	8c/L	p	8c/L	p	8c\L	p
.	.	8c/	.	8a/	.	8ee\	.
.	.	8B/J	.	8g/J	.	8ee\J	.
=178	=178	=178	=178	=178	=178	=178	=178
4.D\	.	4.A/	.	4f#/	.	(8ee\L	.
.	.	.	.	.	.	8dd\)	.
.	.	.	.	8c/	.	8f#'\J	.
=179	=179	=179	=179	=179	=179	=179	=179
[4.GG/	.	(4.A/	.	(4.c/	.	(4.f#/	.
=180	=180	=180	=180	=180	=180	=180	=180
8GG/]	.	8G/)	.	8B/)	.	8g/)	.
8r	.	8r	.	8r	.	8r	.
8r	.	8r	.	8r	.	8r	.
==:|!	==:|!	==:|!	==:|!	==:|!	==:|!	==:|!	==:|!
*-	*-	*-	*-	*-	*-	*-	*-
!!!RWG: Key is interpreted using the Humdrum key tool.
!!!AFT: stage2
!!!END: 1994/02/14
!!!KEY: 1101969716
!!!EMD: Converted from MuseData to Humdrum Dec 16, 2000, by Andreas Kornstaedt using muse2kern.
!!!EMD: Manual editing by Craig Sapp, Nov 2001
